icons/line/file-report.svg

<svg width="24" height="24" viewBox="0 0 24 24" fill="none" xmlns="http://www.w3.org/2000/svg">
<path fill-rule="evenodd" clip-rule="evenodd" d="M6 22C4.34315 22 3 20.6569 3 19V5C3 3.34315 4.34315 2 6 2H14H14.1716C14.9672 2 15.7303 2.31607 16.2929 2.87868L20.1213 6.70711C20.6839 7.26972 21 8.03278 21 8.82843V9V19C21 20.6569 19.6569 22 18 22H6ZM5 19C5 19.5523 5.44772 20 6 20H18C18.5523 20 19 19.5523 19 19V10H16C14.3431 10 13 8.65685 13 7V4H6C5.44772 4 5 4.44772 5 5V19ZM16 8H18.5858L15 4.41421V7C15 7.55229 15.4477 8 16 8ZM16 13C16 12.4477 15.5523 12 15 12C14.4477 12 14 12.4477 14 13V17C14 17.5523 14.4477 18 15 18C15.5523 18 16 17.5523 16 17V13ZM13 15C13 14.4477 12.5523 14 12 14C11.4477 14 11 14.4477 11 15V17C11 17.5523 11.4477 18 12 18C12.5523 18 13 17.5523 13 17V15ZM9 16C8.44772 16 8 16.4477 8 17C8 17.5523 8.44772 18 9 18H9.01C9.56228 18 10.01 17.5523 10.01 17C10.01 16.4477 9.56228 16 9.01 16H9Z" fill="currentColor"/>
</svg>

<svg width="24" height="24" fill="none" xmlns="http://www.w3.org/2000/svg"><path fill-rule="evenodd" clip-rule="evenodd" d="M6 22a3 3 0 01-3-3V5a3 3 0 013-3h8.172a3 3 0 012.12.879l3.83 3.828A3 3 0 0121 8.828V19a3 3 0 01-3 3H6zm-1-3a1 1 0 001 1h12a1 1 0 001-1v-9h-3a3 3 0 01-3-3V4H6a1 1 0 00-1 1v14zM16 8h2.586L15 4.414V7a1 1 0 001 1zm0 5a1 1 0 10-2 0v4a1 1 0 102 0v-4zm-3 2a1 1 0 10-2 0v2a1 1 0 102 0v-2zm-4 1a1 1 0 100 2h.01a1 1 0 100-2H9z" fill="currentColor"/></svg>
